material/.icons/material/power-socket-us.svg

<svg xmlns="http://www.w3.org/2000/svg" viewBox="0 0 24 24"><path d="M8 7h2v5H8V7M4.22 2h15.56C21 2 22 3 22 4.22v15.56A2.22 2.22 0 0119.78 22H4.22C3 22 2 21 2 19.78V4.22A2.22 2.22 0 014.22 2M12 4a8 8 0 00-8 8 8 8 0 008 8 8 8 0 008-8 8 8 0 00-8-8m2 3.5h2v4h-2v-4m-3.5 8.75a1.5 1.5 0 011.5-1.5 1.5 1.5 0 011.5 1.5V17h-3v-.75z"/></svg>

<?xml version="1.0" encoding="UTF-8"?><!DOCTYPE svg PUBLIC "-//W3C//DTD SVG 1.1//EN" "http://www.w3.org/Graphics/SVG/1.1/DTD/svg11.dtd"><svg xmlns="http://www.w3.org/2000/svg" xmlns:xlink="http://www.w3.org/1999/xlink" version="1.1" id="mdi-power-socket-us" width="24" height="24" viewBox="0 0 24 24"><path d="M8,7H10V12H8V7M4.22,2H19.78C21,2 22,3 22,4.22V19.78A2.22,2.22 0 0,1 19.78,22H4.22C3,22 2,21 2,19.78V4.22A2.22,2.22 0 0,1 4.22,2M12,4A8,8 0 0,0 4,12A8,8 0 0,0 12,20A8,8 0 0,0 20,12A8,8 0 0,0 12,4M14,7.5H16V11.5H14V7.5M10.5,16.25A1.5,1.5 0 0,1 12,14.75A1.5,1.5 0 0,1 13.5,16.25V17H10.5V16.25Z" /></svg>
